X:1
T:Title
%%score { ( 1 3 ) | ( 2 4 ) }
L:1/8
Q:1/4=110
M:4/4
K:Bb
V:1 treble nm="Grand Piano"
V:3 treble 
V:2 bass 
V:4 bass 
V:1
 [DB]2 [EB]2 [FB]2 [DF]2 | [EG]2 [EA]2 [FB]2 c2 | d2 B2 e2 d2 | z4 c4 | [FB]2 c2 d2 c2 | %5
w: H.~P.~Danks * * *|||||
 B2 [D_AB]2 [EGB]2 [B,EG]2 | [B,DF]2 [A,CF]2 [B,FB]2 [Fd]2 | [Ec]3 [DB] [DB]4 | %8
w: |||
 [A,CF]3 [B,CG] [CFA]2 [A,CF]2 | [B,FB]3 c d2 [DB]2 | [Fe]2 [Fd]2 [Fc]2 [FA]2 | z4 F4 | %12
w: ||||
 [FB]2 c2 d2 c2 | B2 [D_AB]2 [EGB]2 [B,EG]2 | [B,DF]2 [A,CF]2 [B,FB]2 [Fd]2 | [Ec]3 [DB] [DB]4 |] %16
w: ||||
V:2
 [B,,B,]2 [E,G,]2 [D,F,]2 [B,,B,]2 | [E,B,]2 [C,C]2 [D,B,]2[K:treble] [F,A,F]2 | %2
 [B,F]2 [B,DF]2 [A,CF]2 [B,F]2 | z4 F4 | [D,B,]2 [F,A,F]2[K:treble] [B,F]2 [A,D^F]2 | %5
 [G,DG]2[K:bass] F,2 E,2 E,2 | F,2 F,E, D,2 [B,,B,]2 | [F,A,]3 [B,,B,] [B,,B,]4 | F,3 F, F,2 F,E, | %9
 D,3[K:treble] [F,A,F] [B,F]2[K:bass] [B,,B,]2 | [A,,C]2 [B,,B,]2 [C,A,]2 [C,C]2 | z4 A,4 | %12
 [D,B,]2[K:treble] [F,A,F]2 [B,F]2 [A,D^F]2 | [G,DG]2[K:bass] F,2 E,2 E,2 | F,2 F,E, D,2 [B,,B,]2 | %15
 [F,A,]3 [B,,B,] [B,,B,]4 |] %16
V:3
 x8 | x8 | x8 | c2 c2 z2 E,2 | x8 | x8 | x8 | x8 | x8 | x8 | x8 | [=EG]2 [Ec]2 z2 E,2 | x8 | x8 | %14
 x8 | x8 |] %16
V:4
 x8 | x6[K:treble] x2 | x8 | [A,CF]2 [G,B,=E]2 F,2 z2 | x4[K:treble] x4 | x2[K:bass] x6 | x8 | x8 | %8
 x8 | x3[K:treble] x3[K:bass] x2 | x8 | [C,B,]2 [C,B,]2 F,2 z2 | x2[K:treble] x6 | x2[K:bass] x6 | %14
 x8 | x8 |] %16

